X: 1
T: Kopsin Jonas
R: pols(ka)
F: https://jyx.jyu.fi/dspace/handle/123456789/27704
F: https://jyx.jyu.fi/dspace/bitstream/handle/123456789/27704/kt1_0083.gif?sequence=1
B: "Kansantanssit", by Samuel Rinda-Nickola editor (1809)
Z: 2017 John Chambers <jc:trillian.mit.edu>
M: 3/4
L: 1/16
K: Ador
|:\
B4 c2d2 e4 | f2fe d2f2 e4 |\
d2dc BcdB G4 | c2cd e2ec A2c2 |\
ABA^G G4 A4 :|
|:\
e2a^g a2cB A4 | a2a^g aecA {B}A4 |\
c2dd e2ff g2aa | g2e2 gfe^d e4 |\
d2c2 BcdB G4 |
c2cd e2ec A2c2 | cBA^G G4 A4 :|\
|:\
B4 c2d2 cBcd | e2ec c2B2 A2^G2 |\
B4 c2d2 cBcd |
e2ec c2B2 A2^G2 |\
e2a^g a2cB A4 | a2a^g aecB {B}A4 |\
{B}c2dA G2AB G4 | cBcd e2ec A2c2 |\
cBA^G G4 A4 :|
